svgs/vyom.svg

<svg width="192" height="192" viewBox="0 0 192 192" fill="none" xmlns="http://www.w3.org/2000/svg">
<path d="M137.821 162.668V144.577L146.866 156.49L155.911 144.577V162.668" stroke="black" stroke-width="6" stroke-linecap="round" stroke-linejoin="round"/>
<path d="M120.735 144.577C115.739 144.577 111.689 148.627 111.689 153.622C111.689 158.618 115.739 162.668 120.735 162.668C125.73 162.668 129.78 158.618 129.78 153.622C129.78 148.627 125.73 144.577 120.735 144.577Z" stroke="black" stroke-width="6" stroke-linecap="round"/>
<path d="M91.5881 144.577L99.3859 154.527M99.3859 154.527L106.664 144.577M99.3859 154.527V162.668" stroke="black" stroke-width="6" stroke-linecap="round" stroke-linejoin="round"/>
<path d="M68.4719 144.577L76.756 162.668L80.6544 153.622L84.5527 144.577" stroke="black" stroke-width="6" stroke-linecap="round" stroke-linejoin="round"/>
<path d="M35.9457 145.656C35.9457 145.656 31.6292 153.439 31.5588 155.71C31.4885 157.98 32.1423 159.646 33.7381 161.263C35.334 162.88 36.8806 163.555 39.1514 163.626C41.4221 163.696 43.0883 163.042 44.7052 161.446C46.3222 159.85 49.0921 151.393 49.0921 151.393" stroke="black" stroke-width="6" stroke-linecap="round" stroke-linejoin="round"/>
<path d="M52.3321 161.783C52.3321 161.783 56.6487 154 56.719 151.729C56.7893 149.459 56.1355 147.793 54.5397 146.176C52.9439 144.559 51.3972 143.884 49.1265 143.813C46.8557 143.743 45.1896 144.397 43.5726 145.993C41.9557 147.589 39.1857 156.046 39.1857 156.046" stroke="black" stroke-width="6" stroke-linecap="round" stroke-linejoin="round"/>
<path d="M78.9407 71.4413C78.9407 71.4413 56.9229 49.4017 54.4844 46.9608C52.0459 44.5198 50.9984 42.7825 48.2403 40.7104C45.9824 39.0141 44.7278 37.7774 41.9961 37.0644C39.4399 36.3972 37.8049 36.4664 35.2316 37.0644C32.5759 37.6815 31.1034 38.4686 28.9875 40.1895C26.6218 42.1136 25.4731 43.622 24.3044 46.4399C23.048 49.4691 22.6951 51.5436 23.2637 54.7737C23.8632 58.1792 27.4264 62.5867 27.4264 62.5867C27.4264 62.5867 36.3857 71.5549 47.1996 82.3795M78.9407 71.4413L89.4777 61.0241L100.015 50.6068L110.552 40.1895L115.82 34.9809C115.82 34.9809 118.828 31.5772 121.089 29.7723C124.715 26.8773 127.038 25.3248 131.496 24.0428C134.451 23.1928 136.226 23.0175 139.301 23.0011C143.21 22.9801 145.501 23.2636 149.187 24.5636C152.706 25.8043 154.54 26.9952 157.513 29.2514C160.49 31.511 162.186 32.9237 164.277 36.0226C166.264 38.9664 166.996 40.9264 167.92 44.3564C168.825 47.7183 169.115 49.7328 168.961 53.2111C168.794 56.9581 168.199 59.0762 166.879 62.5867C165.663 65.8231 162.716 70.3996 162.716 70.3996C162.716 70.3996 159.629 74.9059 157.513 77.6917C145.854 93.0408 122.129 112.59 122.129 112.59C122.129 112.59 116.197 117.494 111.722 119.361C107.491 121.127 104.857 121.804 100.275 121.965C95.9668 122.117 93.4235 121.807 89.3476 120.402C84.8662 118.858 82.671 117.079 78.9407 114.152C78.9407 114.152 73.8665 109.073 70.6151 105.818C63.5888 98.785 54.9214 90.109 47.1996 82.3795M78.9407 71.4413C68.382 82.0486 61.4472 84.3859 47.1996 82.3795" stroke="black" stroke-width="14" stroke-linecap="round" stroke-linejoin="round"/>
</svg>

<svg xmlns="http://www.w3.org/2000/svg" width="192" height="192" fill="none" viewBox="0 0 192 192"><path stroke="#000" stroke-linecap="round" stroke-linejoin="round" stroke-width="6" d="M137.821 162.668v-18.091l9.045 11.913 9.045-11.913v18.091"/><path stroke="#000" stroke-linecap="round" stroke-width="6" d="M120.735 144.577a9.046 9.046 0 1 0 0 18.091 9.046 9.046 0 0 0 0-18.091Z"/><path stroke="#000" stroke-linecap="round" stroke-linejoin="round" stroke-width="6" d="m91.588 144.577 7.798 9.95m0 0 7.278-9.95m-7.278 9.95v8.141m-30.914-18.091 8.284 18.091 3.898-9.046 3.899-9.045m-48.607 1.079s-4.317 7.783-4.387 10.054c-.07 2.27.583 3.936 2.18 5.553 1.595 1.617 3.142 2.292 5.412 2.363 2.271.07 3.937-.584 5.554-2.18 1.617-1.596 4.387-10.053 4.387-10.053"/><path stroke="#000" stroke-linecap="round" stroke-linejoin="round" stroke-width="6" d="M52.332 161.783S56.65 154 56.72 151.729c.07-2.27-.584-3.936-2.18-5.553-1.595-1.617-3.142-2.292-5.413-2.363-2.27-.07-3.936.584-5.553 2.18s-4.387 10.053-4.387 10.053"/><path stroke="#000" stroke-linecap="round" stroke-linejoin="round" stroke-width="14" d="m78.94 71.441-24.456-24.48c-2.438-2.441-3.486-4.178-6.244-6.25-2.258-1.697-3.512-2.934-6.244-3.647-2.556-.667-4.191-.598-6.764 0-2.656.617-4.129 1.405-6.244 3.126-2.366 1.924-3.515 3.432-4.684 6.25-1.256 3.03-1.609 5.104-1.04 8.334.6 3.405 4.162 7.813 4.162 7.813L47.2 82.379m31.74-10.938 10.538-10.417 10.537-10.417 10.537-10.417 5.268-5.21s3.008-3.403 5.269-5.208c3.626-2.895 5.949-4.447 10.407-5.73 2.955-.85 4.73-1.025 7.805-1.04 3.909-.022 6.2.262 9.886 1.562 3.519 1.24 5.353 2.431 8.326 4.687 2.977 2.26 4.673 3.673 6.764 6.772 1.987 2.943 2.719 4.903 3.643 8.333.905 3.362 1.195 5.377 1.041 8.855-.167 3.747-.762 5.865-2.082 9.376-1.216 3.236-4.163 7.813-4.163 7.813s-3.087 4.506-5.203 7.292c-11.659 15.349-35.384 34.898-35.384 34.898s-5.932 4.904-10.407 6.771c-4.231 1.766-6.865 2.443-11.447 2.604-4.308.152-6.852-.158-10.927-1.563-4.482-1.544-6.677-3.323-10.407-6.25l-8.326-8.334L47.2 82.379m31.74-10.938C68.383 82.05 61.448 84.386 47.2 82.38"/></svg>
